X: 23
T: Skotsk Reel
B:[[Notböcker/Melodier til gamle danske Almuedanse for Violin solo]]
O:Danmark
Z:Søren Bak Vestergaard
M: 2/4
L: 1/16
K: F
(AB)|cAFA cfaf|egbg edcB|Acfe dcBA|G2G2G2 (AB)|\
cAFA cfaf|egbg edcB|Acfa gbeg|f2f2f2:| |:(ef)|\
gece gcac|gece gcac|bcbc acac|[gc]2[gc]2[gc]2 (AB)|\
cAFA cfaf|dBdf bfdB|Acfa gbeg|[fA]2[fA]2[fA]2:|

